img/svg/spot.svg

<svg width="23" height="24" viewBox="0 0 23 24" fill="none" xmlns="http://www.w3.org/2000/svg">
<path d="M9.4 7.6C9.94568 5.19521 12.0963 3.4 14.6662 3.4C17.6485 3.4 20.0662 5.81766 20.0662 8.8C20.0662 11.5625 17.9918 13.8405 15.3157 14.1613M5.8 5.8L8.2 3.4L5.8 1M1 8.2V6.6C1 4.83269 2.43269 3.4 4.2 3.4H6.6M16.6 17.8L14.2 20.2L16.6 22.6M21.4 15.4V17C21.4 18.7673 19.9673 20.2 18.2 20.2H15.8M11.8 16C11.8 18.9823 9.38234 21.4 6.4 21.4C3.41766 21.4 1 18.9823 1 16C1 13.0177 3.41766 10.6 6.4 10.6C9.38234 10.6 11.8 13.0177 11.8 16Z" stroke="#58D068" stroke-width="2" stroke-linecap="round" stroke-linejoin="round"/>
</svg>

<svg width="23" height="24" viewBox="0 0 23 24" fill="none" xmlns="http://www.w3.org/2000/svg"><path d="M9.4 7.6a5.4 5.4 0 115.916 6.561M5.8 5.8l2.4-2.4L5.8 1M1 8.2V6.6a3.2 3.2 0 013.2-3.2h2.4m10 14.4l-2.4 2.4 2.4 2.4m4.8-7.2V17a3.2 3.2 0 01-3.2 3.2h-2.4m-4-4.2A5.4 5.4 0 111 16a5.4 5.4 0 0110.8 0z" stroke="#58D068" stroke-width="2" stroke-linecap="round" stroke-linejoin="round"/></svg>
